dist/img/benefits/img-3.svg

<svg width="52" height="64" viewBox="0 0 52 64" fill="none" xmlns="http://www.w3.org/2000/svg">
<path d="M41 24C47.0751 24 52 19.0751 52 13C52 6.92487 47.0751 2 41 2C34.9249 2 30 6.92487 30 13C30 19.0751 34.9249 24 41 24Z" fill="url(#paint0_linear_140_167)"/>
<path d="M20.559 60.7301C19.8361 59.7834 19.1689 58.948 18.5016 58.0431C16.6528 55.3699 14.7483 52.7385 12.9411 49.9958C10.7139 46.5106 8.74395 42.8671 7.04703 39.0943C5.38234 35.5236 4.0874 31.7914 3.1825 27.9562C2.47757 25.009 2.21983 21.9723 2.41793 18.9483C2.6613 16.1767 3.55176 13.5012 5.01746 11.1377C6.37462 8.92172 8.19009 7.02275 10.3416 5.56859C12.4377 4.16213 14.8059 3.21338 17.2922 2.78406C20.3819 2.21162 23.567 2.45147 26.5365 3.4802C28.4452 4.13004 30.2276 5.10502 31.8051 6.36219C34.0205 8.10526 35.8005 10.3408 37.0041 12.8919C38.4384 16.06 38.9999 19.5548 38.6306 23.0137C38.3123 26.5642 37.5415 30.0594 36.3369 33.4139C35.2119 36.6982 33.817 39.8835 32.1665 42.937C30.7069 45.5962 29.2473 48.2694 27.6208 50.8311C25.7998 53.6157 23.798 56.4002 21.8518 59.0873C21.4765 59.5746 21.0317 60.1036 20.559 60.7301Z" stroke="white" stroke-width="3" stroke-miterlimit="10"/>
<circle cx="21" cy="22" r="5.5" stroke="white" stroke-width="3"/>
<defs>
<linearGradient id="paint0_linear_140_167" x1="18.8027" y1="28.2224" x2="62.8126" y2="-1.94619" gradientUnits="userSpaceOnUse">
<stop stop-color="#BC8459"/>
<stop offset="0.28" stop-color="#97623E"/>
<stop offset="0.42" stop-color="#C3825A"/>
<stop offset="0.55" stop-color="#EA9E72"/>
<stop offset="0.63" stop-color="#F9A97B"/>
<stop offset="0.71" stop-color="#E79B70"/>
<stop offset="0.88" stop-color="#BA7753"/>
<stop offset="1" stop-color="#975B3D"/>
</linearGradient>
</defs>
</svg>

<svg width="52" height="64" fill="none" xmlns="http://www.w3.org/2000/svg"><path d="M41 24c6.075 0 11-4.925 11-11S47.075 2 41 2 30 6.925 30 13s4.925 11 11 11z" fill="url(#paint0_linear_140_167)"/><path d="M20.559 60.73c-.723-.947-1.39-1.782-2.057-2.687-1.85-2.673-3.754-5.304-5.56-8.047a84.977 84.977 0 01-5.895-10.902 57.74 57.74 0 01-3.864-11.138 30.229 30.229 0 01-.765-9.008 17.77 17.77 0 012.6-7.81 18.185 18.185 0 015.324-5.57 17.959 17.959 0 016.95-2.784 18.142 18.142 0 019.244.696 17.507 17.507 0 015.27 2.882 18.177 18.177 0 015.198 6.53 19.518 19.518 0 011.627 10.122 41.823 41.823 0 01-2.294 10.4 62.878 62.878 0 01-4.17 9.523c-1.46 2.66-2.92 5.332-4.546 7.894-1.821 2.785-3.823 5.57-5.77 8.256-.374.488-.82 1.017-1.292 1.643z" stroke="#fff" stroke-width="3" stroke-miterlimit="10"/><circle cx="21" cy="22" r="5.5" stroke="#fff" stroke-width="3"/><defs><linearGradient id="paint0_linear_140_167" x1="18.803" y1="28.222" x2="62.813" y2="-1.946" gradientUnits="userSpaceOnUse"><stop stop-color="#BC8459"/><stop offset=".28" stop-color="#97623E"/><stop offset=".42" stop-color="#C3825A"/><stop offset=".55" stop-color="#EA9E72"/><stop offset=".63" stop-color="#F9A97B"/><stop offset=".71" stop-color="#E79B70"/><stop offset=".88" stop-color="#BA7753"/><stop offset="1" stop-color="#975B3D"/></linearGradient></defs></svg>
